img/highlight-white-small.svg

<?xml version="1.0" encoding="UTF-8" standalone="no"?>
<svg
   xmlns:dc="http://purl.org/dc/elements/1.1/"
   xmlns:cc="http://creativecommons.org/ns#"
   xmlns:rdf="http://www.w3.org/1999/02/22-rdf-syntax-ns#"
   xmlns:svg="http://www.w3.org/2000/svg"
   xmlns="http://www.w3.org/2000/svg"
   xmlns:sodipodi="http://sodipodi.sourceforge.net/DTD/sodipodi-0.dtd"
   xmlns:inkscape="http://www.inkscape.org/namespaces/inkscape"
   height="37.21019"
   width="60.6245"
   version="1.1"
   viewBox="0 0 16.040029 9.8451271"
   id="svg20"
   sodipodi:docname="highlight-white-small.svg"
   inkscape:version="0.92.3 (2405546, 2018-03-11)">
  <metadata
     id="metadata26">
    <rdf:RDF>
      <cc:Work
         rdf:about="">
        <dc:format>image/svg+xml</dc:format>
        <dc:type
           rdf:resource="http://purl.org/dc/dcmitype/StillImage" />
        <dc:title></dc:title>
      </cc:Work>
    </rdf:RDF>
  </metadata>
  <defs
     id="defs24" />
  <sodipodi:namedview
     pagecolor="#ffffff"
     bordercolor="#666666"
     borderopacity="1"
     objecttolerance="10"
     gridtolerance="10"
     guidetolerance="10"
     inkscape:pageopacity="0"
     inkscape:pageshadow="2"
     inkscape:window-width="1920"
     inkscape:window-height="1046"
     id="namedview22"
     showgrid="false"
     fit-margin-top="2"
     fit-margin-left="2"
     fit-margin-right="2"
     fit-margin-bottom="2"
     inkscape:zoom="4.6721413"
     inkscape:cx="35.516269"
     inkscape:cy="56.104922"
     inkscape:window-x="0"
     inkscape:window-y="34"
     inkscape:window-maximized="1"
     inkscape:current-layer="svg20" />
  <path
     style="fill:none;stroke:#ffffff;stroke-width:0.99997431;stroke-linecap:round;stroke-linejoin:round"
     d="M 15.953125 3.0722656 L 19.300781 5.5488281 L 15.953125 3.0722656 z M 2.4941406 9.9980469 L 14.943359 13.529297 L 2.4941406 9.9980469 z M 15.025391 22.210938 L 6.34375 25.644531 L 15.025391 22.210938 z M 19.300781 31.041016 L 17.015625 34.716797 L 19.300781 31.041016 z "
     transform="matrix(0.26458148,0,0,0.26458148,-4.5508775e-5,0)"
     id="path2" />
  <path
     style="fill:none;stroke:#ffffff;stroke-width:0.99997431;stroke-linecap:round;stroke-linejoin:round"
     d="M 49.390625 2.4960938 L 44.189453 6.8476562 L 49.390625 2.4960938 z M 58.130859 12.3125 L 49.474609 14.951172 L 58.130859 12.3125 z M 48.988281 23.953125 L 54.787109 26.326172 L 48.988281 23.953125 z M 45.707031 31.355469 L 48.363281 33.921875 L 45.707031 31.355469 z "
     transform="matrix(0.26458148,0,0,0.26458148,-4.5508775e-5,0)"
     id="path6" />
</svg>

<svg width="60.624" height="37.21" version="1.1" viewBox="0 0 16.04 9.8451" xmlns="http://www.w3.org/2000/svg"><path transform="matrix(.26458 0 0 .26458 -4.5509e-5 0)" d="m15.953 3.0723 3.3477 2.4766-3.3477-2.4766zm-13.459 6.9258 12.449 3.5313-12.449-3.5313zm12.531 12.213-8.6816 3.4336 8.6816-3.4336zm4.2754 8.8301-2.2852 3.6758 2.2852-3.6758z" fill="none" stroke="#fff" stroke-linecap="round" stroke-linejoin="round" stroke-width=".99997"/><path transform="matrix(.26458 0 0 .26458 -4.5509e-5 0)" d="m49.391 2.4961-5.2012 4.3516 5.2012-4.3516zm8.7402 9.8164-8.6562 2.6387 8.6562-2.6387zm-9.1426 11.641 5.7988 2.373-5.7988-2.373zm-3.2812 7.4023 2.6562 2.5664-2.6562-2.5664z" fill="none" stroke="#fff" stroke-linecap="round" stroke-linejoin="round" stroke-width=".99997"/></svg>
